5-hand-drawn-text-animation/hand_written.svg

<svg xmlns="http://www.w3.org/2000/svg" xmlns:xlink="http://www.w3.org/1999/xlink" width="300" height="200">
  <defs>
    <path d="M17.43 134.71l4.57-4.57 2.57-2.85 2.86-3.15 2-2.85 1.71-2.86 2-2.57 1.15-3.15 1.14-3.14 1.43-4.57L38 99.57l.86-4.28L40 90.71l.57-5.14.86-5.14L42.57 75l.86-4.29.57-4.57.86-3.71.85-3.72.58-3.71.85-4.57.57-3.72.29 4-.29 4-.57 4.86-.28 5.72-.57 6.85-.58 5.43v4.86l-.28 5.14-.29 3.72-.28 3.14-.29 3.43-.57 5.43-.57 4.57-.86 5.14-.57 3.71-.57 3.43-.57 3.43-.29 4.29L40 131l-.29 3.14-.85-3.43-.57-3.71v-26.57l.28-4.86.57-4 .57-4.28.58-3.43.85-4 .86-3.72.86-3.14 1.43-5.71 1.42-4 1.15-3.72.85-3.14 2-3.72 2.58-3.42 4-2L60 47l3.43.86 2.86 1.71 2.28 2.29 1.72 2.85 1.14 3.43.57 4.57.29 5.72-.58 3.14-2 4.86L67.43 81l-3.14 3.71-3.72 3.43-5.43 3.15-4.57 2.28-4 1.72-3.14 1.14-3.14.86-3.43-.86-.57-3.43 1.42-3.71 2.86-3.15 4.57-1.43h3.15l3.71 2L55.43 89 58 91.86l1.71 3.71 1.15 4 .57 3.43.28 4 .29 3.71.29 3.72.28 4.28.86 3.15 2.86 1.43 3.42-2.29 3.43-4.57 2.29-2.57 3.14-4 3.14-3.15 2.86-2.28 3.43-2 4-1.14 3.43.28-5.72-.86-5.71.86-3.43 1.43-3.71 2-4.29 3.14-2.28 3.15-2 3.42-.29 3.72.57 3.14 1.43 2.86 3.71 2.57 5.15 1.43 3.43.57 3.42.29H92l4-2 2.86-3.15 1.71-3.71 1.14-4.86v-3.43l-1.42-3.43-2.29-2.28-3.43-1.43h-3.71l-.86 3.43 4.86 2h6l4.28-1.43 3.72-1.71 3.71-2.29 3.14-2 3.15-1.14.28 4.57-.57 4.57-2 4.29-1.71 3.42-2 4-2 3.15 2-4.29 1.71-3.14 1.72-2.86 2.28-3.14 2.86-4.29 2.28-2.28 3.72-3.15 3.43-1.71 2.57 2 .28 3.71v3.43l-.85 3.15 1.14-4 3.14-3.43 4-2 4.57-1.43 2.58 2.57-.58 4-.85 3.43-2 3.71-2.57 4-1.72 3.15-1.14 3.42L142 129l3.71-.29 4-1.71 2.86-1.71 2.57-2.58 2.57-3.71 2-2.86L162 113l2.57-3.14 2.29-2.57 2.57-2.29 2.28-2.29 2 2.58-.28 3.14-.86 3.43-1.14 3.71-1.14 4 1.71-3.71 3.14-3.43 2.29-2.29 2.57-2 2.86-2.28 4-2.57 1.43 2.85-.86 3.72-1.72 3.14-2.57 3.43 2-4 4-3.43 2.86-1.71 4-2 3.14-.86 1.15 3.14-.29 3.14-.86 3.43-2 4-1.71 2.86-2 3.14-2 3.15 3.14.57 5.43-.57 3.14-.86 3.72-.57 4-1.15 3.14-.57 3.14-1.43 2.86-1.42 3.71-3.15 4-3.14 2.29-2.86.57-3.71-3.71-1.14-3.43.85-3.14 3.15-1.72 3.14-1.43 4L216 123l-.29 3.43 3.15 1.71h4.85l5.43-.57 3.72-1.14 5.14-2 3.71-3.72 2.86-4.28 1.43-2.86 2.57-4.28 3.14-4.86 3.15-4.86 2.85-5.43 2.58-5.14 1.71-4 1.71-5.14v-3.43l-3.14-.86-4 3.72-2.57 4.57-1.71 2.85-1.15 5.43-.85 4.86v8.29l-.29 5.42v8l1.71 2.86 3.72 1.43" id="a"/>
  </defs>
  <use xlink:href="#a" fill-opacity="0" stroke="#000"/>
</svg>

<?xml version="1.0" encoding="UTF-8" standalone="no"?>
<!DOCTYPE svg PUBLIC "-//W3C//DTD SVG 1.1//EN" "http://www.w3.org/Graphics/SVG/1.1/DTD/svg11.dtd">
<svg version="1.1" xmlns="http://www.w3.org/2000/svg" xmlns:xlink="http://www.w3.org/1999/xlink" preserveAspectRatio="xMidYMid meet" viewBox="0 0 300 200" width="300" height="200"><defs><path d="M17.43 134.71L22 130.14L24.57 127.29L27.43 124.14L29.43 121.29L31.14 118.43L33.14 115.86L34.29 112.71L35.43 109.57L36.86 105L38 99.57L38.86 95.29L40 90.71L40.57 85.57L41.43 80.43L42.57 75L43.43 70.71L44 66.14L44.86 62.43L45.71 58.71L46.29 55L47.14 50.43L47.71 46.71L48 50.71L47.71 54.71L47.14 59.57L46.86 65.29L46.29 72.14L45.71 77.57L45.71 82.43L45.43 87.57L45.14 91.29L44.86 94.43L44.57 97.86L44 103.29L43.43 107.86L42.57 113L42 116.71L41.43 120.14L40.86 123.57L40.57 127.86L40 131L39.71 134.14L38.86 130.71L38.29 127L38.29 122.43L38.29 116.43L38.29 111.29L38.29 106.14L38.29 100.43L38.57 95.57L39.14 91.57L39.71 87.29L40.29 83.86L41.14 79.86L42 76.14L42.86 73L44.29 67.29L45.71 63.29L46.86 59.57L47.71 56.43L49.71 52.71L52.29 49.29L56.29 47.29L60 47L63.43 47.86L66.29 49.57L68.57 51.86L70.29 54.71L71.43 58.14L72 62.71L72.29 68.43L71.71 71.57L69.71 76.43L67.43 81L64.29 84.71L60.57 88.14L55.14 91.29L50.57 93.57L46.57 95.29L43.43 96.43L40.29 97.29L36.86 96.43L36.29 93L37.71 89.29L40.57 86.14L45.14 84.71L48.29 84.71L52 86.71L55.43 89L58 91.86L59.71 95.57L60.86 99.57L61.43 103L61.71 107L62 110.71L62.29 114.43L62.57 118.71L63.43 121.86L66.29 123.29L69.71 121L73.14 116.43L75.43 113.86L78.57 109.86L81.71 106.71L84.57 104.43L88 102.43L92 101.29L95.43 101.57L89.71 100.71L84 101.57L80.57 103L76.86 105L72.57 108.14L70.29 111.29L68.29 114.71L68 118.43L68.57 121.57L70 124.43L73.71 127L78.86 128.43L82.29 129L85.71 129.29L88.86 129.29L92 129.29L96 127.29L98.86 124.14L100.57 120.43L101.71 115.57L101.71 112.14L100.29 108.71L98 106.43L94.57 105L90.86 105L90 108.43L94.86 110.43L100.86 110.43L105.14 109L108.86 107.29L112.57 105L115.71 103L118.86 101.86L119.14 106.43L118.57 111L116.57 115.29L114.86 118.71L112.86 122.71L110.86 125.86L112.86 121.57L114.57 118.43L116.29 115.57L118.57 112.43L121.43 108.14L123.71 105.86L127.43 102.71L130.86 101L133.43 103L133.71 106.71L133.71 110.14L132.86 113.29L134 109.29L137.14 105.86L141.14 103.86L145.71 102.43L148.29 105L147.71 109L146.86 112.43L144.86 116.14L142.29 120.14L140.57 123.29L139.43 126.71L142 129L145.71 128.71L149.71 127L152.57 125.29L155.14 122.71L157.71 119L159.71 116.14L162 113L164.57 109.86L166.86 107.29L169.43 105L171.71 102.71L173.71 105.29L173.43 108.43L172.57 111.86L171.43 115.57L170.29 119.57L172 115.86L175.14 112.43L177.43 110.14L180 108.14L182.86 105.86L186.86 103.29L188.29 106.14L187.43 109.86L185.71 113L183.14 116.43L185.14 112.43L189.14 109L192 107.29L196 105.29L199.14 104.43L200.29 107.57L200 110.71L199.14 114.14L197.14 118.14L195.43 121L193.43 124.14L191.43 127.29L194.57 127.86L200 127.29L203.14 126.43L206.86 125.86L210.86 124.71L214 124.14L217.14 122.71L220 121.29L223.71 118.14L227.71 115L230 112.14L230.57 108.43L226.86 107.29L223.43 108.14L220.29 111.29L218.57 114.43L217.14 118.43L216 123L215.71 126.43L218.86 128.14L223.71 128.14L229.14 127.57L232.86 126.43L238 124.43L241.71 120.71L244.57 116.43L246 113.57L248.57 109.29L251.71 104.43L254.86 99.57L257.71 94.14L260.29 89L262 85L263.71 79.86L263.71 76.43L260.57 75.57L256.57 79.29L254 83.86L252.29 86.71L251.14 92.14L250.29 97L250.29 101L250.29 105.29L250 110.71L250 114.14L250 118.71L251.71 121.57L255.43 123" id="bHX1G5ZQF"></path></defs><g><g><g><g><use xlink:href="#bHX1G5ZQF" opacity="1" fill-opacity="0" stroke="#000000" stroke-width="1" stroke-opacity="1"></use></g></g></g></g></svg>
